; generated by PrusaSlicer 2.6.0+linux-x64-GTK3 on 2023-07-21 at 02:16:27 UTC


;
;

;
;
; 

; external perimeters extrusion width = 0.45mm
; perimeters extrusion width = 0.45mm
; infill extrusion width = 0.45mm
; solid infill extrusion width = 0.45mm
; top infill extrusion width = 0.40mm
; first layer extrusion width = 0.42mm

M73 P0 R100
M201 X2500 Y2500 Z400 E5000 ; sets maximum accelerations, mm/sec^2
M203 X180 Y180 Z12 E80 ; sets maximum feedrates, mm / sec
M204 P2000 R1250 T2500 ; sets acceleration (P, T) and retract acceleration (R), mm/sec^2
M205 X8.00 Y8.00 Z2.00 E10.00 ; sets the jerk limits, mm/sec
M205 S0 T0 ; sets the minimum extruding and travel feed rate, mm/sec
;TYPE:Custom
M862.3 P "MINI" ; printer model check
G90 ; use absolute coordinates
M83 ; extruder relative mode
M104 S170 ; set extruder temp for bed leveling
M140 S60 ; set bed temp
M109 R170 ; wait for bed leveling temp
M190 S60 ; wait for bed temp
M204 T1250 ; set travel acceleration
G28 ; home all without mesh bed level
G29 ; mesh bed leveling 
M204 T2500 ; restore travel acceleration
M104 S215 ; set extruder temp
G92 E0
G1 Y-2 X179 F2400
G1 Z3 F720
M109 S215 ; wait for extruder temp

; intro line
G1 X170 F1000
G1 Z0.2 F720
G1 X110 E8 F900
G1 X40 E10 F700
G92 E0

M221 S95 ; set flow
G21 ; set units to millimeters
G90 ; use absolute coordinates
M83 ; use relative distances for extrusion
M900 K0.2 ; Filament gcode LA 1.5
; ; Filament gcode LA 1.0
M107
;LAYER_CHANGE
;Z:0.2
;HEIGHT:0.2
;BEFORE_LAYER_CHANGE
G92 E0.0
;0.2


G1 E-3.2 F4200
G1 Z.2 F720
;AFTER_LAYER_CHANGE
;0.2
G1 Z.4
G1 X51.429 Y57.107 F9000
G1 Z.2 F720
G1 E3.2 F2400
M204 P600
;TYPE:Skirt/Brim
;WIDTH:0.42
G1 F1200
G1 X52.474 Y56.231 E.04275
G1 X53.414 Y56.037 E.03009
G1 X126.586 Y56.037 E2.29426
G1 X127.893 Y56.429 E.04278
G1 X128.769 Y57.474 E.04275
G1 X128.963 Y58.414 E.03009
G1 X128.963 Y121.586 E1.98071
G1 X128.571 Y122.893 E.04278
G1 X127.526 Y123.769 E.04275
G1 X126.586 Y123.963 E.03009
G1 X53.414 Y123.963 E2.29426
G1 X52.107 Y123.571 E.04278
G1 X51.231 Y122.526 E.04275
G1 X51.037 Y121.586 E.03009
G1 X51.037 Y58.414 E1.98071
G1 X51.412 Y57.165 E.04089
M204 P1000
; printing object box_bottom.stl id:0 copy 0
G1 E-2.24 F4200
;WIPE_START
G1 F7200
G1 X52.474 Y56.231 E-.78375
G1 X52.785 Y56.167 E-.17625
;WIPE_END
G1 Z.4 F720
G1 X124.704 Y65.998 F9000
G1 Z.2 F720
G1 E3.2 F2400
M204 P600
;TYPE:Perimeter
;WIDTH:0.419999
G1 F1200
G1 X124.751 Y65.884 E.00387
;WIDTH:0.457158
G1 X124.823 Y65.636 E.00889
;WIDTH:0.494317
G1 X124.894 Y65.389 E.00965
;WIDTH:0.531476
G1 X124.966 Y65.141 E.01049
G1 X124.971 Y65.176 E.00144
;WIDTH:0.521457
G1 X124.988 Y65.422 E.00981
;WIDTH:0.487638
G1 X125.005 Y65.667 E.00908
;WIDTH:0.453819
G1 X125.022 Y65.913 E.00842
;WIDTH:0.419999
G1 X125.022 Y114.087 E1.51046
;WIDTH:0.459451
G1 X125.002 Y114.333 E.00855
;WIDTH:0.498903
G1 X124.982 Y114.578 E.00932
;WIDTH:0.538354
G1 X124.962 Y114.824 E.01017
G1 X124.872 Y114.525 E.01286
;WIDTH:0.498903
G1 X124.781 Y114.227 E.01181
;WIDTH:0.459451
G1 X124.691 Y113.928 E.01081
;WIDTH:0.419999
G1 X124.299 Y113.094 E.02889
G1 X123.868 Y112.502 E.02296
G1 X123.391 Y112.02 E.02126
G1 X122.624 Y111.489 E.02925
G1 X121.764 Y111.129 E.02923
G1 X120.897 Y110.956 E.02772
G1 X120.382 Y110.941 E.01615
G1 X119.457 Y111.059 E.02924
G1 X118.576 Y111.366 E.02925
G1 X117.779 Y111.85 E.02924
G1 X117.1 Y112.489 E.02923
G1 X116.569 Y113.256 E.02925
G1 X116.209 Y114.116 E.02923
G1 X116.035 Y115.032 E.02923
G1 X116.055 Y115.964 E.02923
G1 X116.269 Y116.872 E.02925
G1 X116.667 Y117.715 E.02923
G1 X117.232 Y118.457 E.02924
G1 X117.939 Y119.066 E.02926
G1 X118.756 Y119.514 E.02921
;WIDTH:0.467989
G1 X118.932 Y119.591 E.00679
;WIDTH:0.515979
G1 X119.108 Y119.669 E.00757
;WIDTH:0.563969
G1 X119.285 Y119.747 E.00838
;WIDTH:0.611959
G1 X119.461 Y119.824 E.00909
;WIDTH:0.659948
G1 X119.637 Y119.902 E.00988
G1 X119.562 Y119.924 E.00401
;WIDTH:0.614784
G1 X119.487 Y119.947 E.00373
;WIDTH:0.56962
G1 X119.412 Y119.969 E.00342
;WIDTH:0.524455
G1 X119.167 Y119.987 E.00984
;WIDTH:0.489637
G1 X118.921 Y120.004 E.00916
;WIDTH:0.454818
G1 X118.676 Y120.022 E.00841
;WIDTH:0.419999
G1 X61.324 Y120.022 E1.79823
;WIDTH:0.458725
G1 X61.14 Y120.002 E.0064
;WIDTH:0.497451
G1 X60.956 Y119.983 E.00699
;WIDTH:0.536177
G1 X60.772 Y119.964 E.00759
;WIDTH:0.574902
G1 X60.588 Y119.944 E.00819
;WIDTH:0.622544
G1 X60.512 Y119.92 E.00384
;WIDTH:0.670186
G1 X60.437 Y119.897 E.00409
G1 X60.502 Y119.856 E.00401
;WIDTH:0.622544
G1 X60.567 Y119.815 E.0037
;WIDTH:0.574902
G1 X60.782 Y119.72 E.0104
;WIDTH:0.536177
G1 X60.996 Y119.624 E.00962
;WIDTH:0.497451
G1 X61.21 Y119.529 E.00885
;WIDTH:0.458725
G1 X61.424 Y119.434 E.0081
;WIDTH:0.419999
G1 X62.221 Y118.95 E.02924
G1 X62.9 Y118.311 E.02923
G1 X63.431 Y117.544 E.02925
G1 X63.791 Y116.684 E.02923
G1 X63.965 Y115.768 E.02923
G1 X63.945 Y114.836 E.02923
G1 X63.735 Y113.939 E.02889
G1 X63.437 Y113.27 E.02296
G1 X63.07 Y112.699 E.02128
G1 X62.431 Y112.02 E.02923
G1 X61.664 Y111.489 E.02925
G1 X60.804 Y111.129 E.02923
G1 X59.937 Y110.956 E.02772
G1 X59.422 Y110.941 E.01615
G1 X58.497 Y111.059 E.02924
G1 X57.616 Y111.366 E.02925
G1 X56.819 Y111.85 E.02924
G1 X56.14 Y112.489 E.02923
G1 X55.609 Y113.256 E.02925
G1 X55.249 Y114.116 E.02923
;WIDTH:0.45945
G1 X55.178 Y114.352 E.00854
;WIDTH:0.498901
G1 X55.108 Y114.588 E.00933
;WIDTH:0.538352
G1 X55.038 Y114.824 E.01014
G1 X55.018 Y114.578 E.01017
;WIDTH:0.498901
G1 X54.998 Y114.333 E.00932
;WIDTH:0.45945
G1 X54.978 Y114.087 E.00855
;WIDTH:0.419999
G1 X54.978 Y65.913 E1.51046
;WIDTH:0.457158
G1 X54.997 Y65.655 E.00891
;WIDTH:0.494317
G1 X55.016 Y65.398 E.00967
;WIDTH:0.531476
G1 X55.034 Y65.141 E.01047
G1 X55.046 Y65.175 E.00146
;WIDTH:0.521457
G1 X55.134 Y65.474 E.0124
;WIDTH:0.487638
G1 X55.222 Y65.773 E.01153
;WIDTH:0.453819
G1 X55.309 Y66.072 E.01064
;WIDTH:0.419999
G1 X55.707 Y66.915 E.02923
G1 X56.272 Y67.657 E.02924
G1 X56.979 Y68.266 E.02926
G1 X57.796 Y68.714 E.02921
G1 X58.689 Y68.982 E.02923
G1 X59.619 Y69.059 E.02926
G1 X60.544 Y68.941 E.02924
G1 X61.424 Y68.634 E.02922
G1 X62.221 Y68.15 E.02924
G1 X62.9 Y67.511 E.02923
G1 X63.431 Y66.744 E.02925
G1 X63.791 Y65.884 E.02923
G1 X63.965 Y64.968 E.02923
G1 X63.945 Y64.036 E.02923
G1 X63.731 Y63.128 E.02925
G1 X63.333 Y62.285 E.02923
G1 X62.768 Y61.543 E.02924
G1 X62.061 Y60.934 E.02926
G1 X61.244 Y60.486 E.02921
;WIDTH:0.467988
G1 X61.068 Y60.409 E.00679
;WIDTH:0.515977
G1 X60.892 Y60.331 E.00757
;WIDTH:0.563966
G1 X60.715 Y60.253 E.00838
;WIDTH:0.611955
G1 X60.539 Y60.176 E.00909
;WIDTH:0.659944
G1 X60.363 Y60.098 E.00988
G1 X60.438 Y60.076 E.00401
;WIDTH:0.614781
G1 X60.513 Y60.053 E.00373
;WIDTH:0.569618
G1 X60.588 Y60.031 E.00342
;WIDTH:0.524454
G1 X60.833 Y60.013 E.00984
;WIDTH:0.489636
G1 X61.079 Y59.996 E.00916
;WIDTH:0.454818
G1 X61.324 Y59.978 E.00841
;WIDTH:0.419999
G1 X118.676 Y59.978 E1.79823
;WIDTH:0.458716
G1 X118.86 Y59.998 E.0064
;WIDTH:0.497433
G1 X119.044 Y60.017 E.00699
;WIDTH:0.53615
G1 X119.228 Y60.036 E.00759
;WIDTH:0.574867
G1 X119.412 Y60.056 E.00819
;WIDTH:0.622486
G1 X119.488 Y60.08 E.00384
;WIDTH:0.670104
G1 X119.564 Y60.103 E.00414
G1 X119.498 Y60.144 E.00405
;WIDTH:0.622486
G1 X119.433 Y60.185 E.0037
;WIDTH:0.574867
G1 X119.219 Y60.28 E.01036
;WIDTH:0.53615
G1 X119.005 Y60.376 E.00962
;WIDTH:0.497433
G1 X118.79 Y60.471 E.00888
;WIDTH:0.458716
G1 X118.576 Y60.566 E.0081
;WIDTH:0.419999
G1 X117.779 Y61.05 E.02924
G1 X117.1 Y61.689 E.02923
G1 X116.569 Y62.456 E.02925
G1 X116.209 Y63.316 E.02923
G1 X116.035 Y64.232 E.02923
G1 X116.055 Y65.164 E.02923
G1 X116.269 Y66.072 E.02925
G1 X116.667 Y66.915 E.02923
G1 X117.232 Y67.657 E.02924
G1 X117.939 Y68.266 E.02926
G1 X118.756 Y68.714 E.02921
G1 X119.649 Y68.982 E.02923
G1 X120.579 Y69.059 E.02926
G1 X121.504 Y68.941 E.02924
G1 X122.384 Y68.634 E.02922
G1 X123.021 Y68.266 E.02307
G1 X123.522 Y67.864 E.02014
G1 X123.952 Y67.396 E.01993
G1 X124.391 Y66.744 E.02465
G1 X124.681 Y66.053 E.0235
M204 P1000
G1 E-2.24 F4200
;WIPE_START
G1 F7200
G1 X124.751 Y65.884 E-.10137
G1 X124.823 Y65.636 E-.14311
G1 X124.894 Y65.389 E-.14242
G1 X124.966 Y65.141 E-.14311
G1 X124.971 Y65.176 E-.01959
G1 X124.988 Y65.422 E-.13665
G1 X125.005 Y65.667 E-.1361
G1 X125.022 Y65.913 E-.13665
G1 X125.022 Y65.915 E-.001
;WIPE_END
G1 Z.4 F720
G1 X124.962 Y64.024 F9000
G1 Z.2 F720
G1 E3.2 F2400
M204 P600
;WIDTH:0.538354
G1 F1200
G1 X124.872 Y63.726 E.01282
;WIDTH:0.498903
G1 X124.782 Y63.429 E.01177
;WIDTH:0.459451
G1 X124.692 Y63.132 E.01075
;WIDTH:0.419999
G1 X124.325 Y62.345 E.02723
G1 X123.866 Y61.698 E.02487
G1 X123.618 Y61.444 E.01113
G1 X123.021 Y60.934 E.02462
G1 X122.204 Y60.486 E.02921
;WIDTH:0.467988
G1 X122.028 Y60.409 E.00679
;WIDTH:0.515977
G1 X121.852 Y60.331 E.00757
;WIDTH:0.563966
G1 X121.675 Y60.253 E.00838
;WIDTH:0.611955
G1 X121.499 Y60.176 E.00909
;WIDTH:0.659944
G1 X121.323 Y60.098 E.00988
G1 X121.398 Y60.076 E.00401
;WIDTH:0.614781
G1 X121.473 Y60.053 E.00373
;WIDTH:0.569618
G1 X121.548 Y60.031 E.00342
;WIDTH:0.524454
G1 X121.793 Y60.013 E.00984
;WIDTH:0.489636
G1 X122.039 Y59.996 E.00916
;WIDTH:0.454818
G1 X122.284 Y59.978 E.00841
;WIDTH:0.419999
G1 X125.022 Y59.978 E.08585
G1 X125.022 Y60.819 E.02637
G1 X125.022 Y63.287 E.07738
;WIDTH:0.459451
G1 X125.002 Y63.533 E.00855
;WIDTH:0.498903
G1 X124.982 Y63.778 E.00932
;WIDTH:0.538354
G1 X124.967 Y63.964 E.00769
M204 P1000
G1 E-2.24 F4200
;WIPE_START
G1 F7200
G1 X124.872 Y63.726 E-.14201
G1 X124.782 Y63.429 E-.17198
G1 X124.692 Y63.132 E-.17198
G1 X124.33 Y62.357 E-.47403
;WIPE_END
G1 Z.4 F720
G1 X124.359 Y65.86 F9000
G1 Z.2 F720
G1 E3.2 F2400
M204 P600
;WIDTH:0.419999
G1 F1200
G1 X124.047 Y66.591 E.02492
G1 X123.645 Y67.178 E.02231
G1 X123.248 Y67.605 E.01828
G1 X122.833 Y67.939 E.0167
G1 X122.195 Y68.307 E.02309
G1 X121.387 Y68.583 E.02677
G1 X120.539 Y68.684 E.02678
G1 X119.689 Y68.607 E.02676
G1 X118.873 Y68.355 E.02678
G1 X118.127 Y67.939 E.02678
G1 X117.484 Y67.377 E.02678
G1 X116.972 Y66.693 E.02679
G1 X116.614 Y65.918 E.02677
G1 X116.424 Y65.086 E.02676
G1 X116.412 Y64.232 E.02678
G1 X116.577 Y63.394 E.02678
G1 X116.913 Y62.609 E.02677
G1 X117.405 Y61.911 E.02678
G1 X118.031 Y61.33 E.02678
G1 X118.765 Y60.893 E.02678
G1 X119.573 Y60.617 E.02677
G1 X120.421 Y60.516 E.02678
G1 X121.271 Y60.593 E.02676
G1 X122.087 Y60.845 E.02678
G1 X122.833 Y61.261 E.02678
G1 X123.366 Y61.724 E.02214
G1 X123.559 Y61.916 E.00854
G1 X124.017 Y62.563 E.02485
G1 X124.347 Y63.284 E.02486
G1 X124.536 Y64.114 E.02669
G1 X124.548 Y64.968 E.02678
G1 X124.383 Y65.805 E.02675
M204 P1000
G1 X124.038 Y65.609 F9000
M204 P600
;TYPE:External perimeter
G1 F1200
G1 X124.014 Y65.727 E.00378
G1 X123.702 Y66.438 E.02434
G1 X123.337 Y66.96 E.01997
G1 X122.974 Y67.346 E.01661
G1 X122.644 Y67.612 E.01329
G1 X122.007 Y67.981 E.02308
G1 X121.27 Y68.224 E.02433
G1 X120.5 Y68.309 E.02429
G1 X119.728 Y68.232 E.02433
G1 X118.989 Y67.997 E.02431
G1 X118.316 Y67.612 E.02431
G1 X117.737 Y67.097 E.0243
G1 X117.278 Y66.472 E.02431
G1 X116.958 Y65.765 E.02433
G1 X116.793 Y65.007 E.02432
G1 X116.789 Y64.232 E.0243
G1 X116.946 Y63.473 E.0243
G1 X117.258 Y62.762 E.02434
G1 X117.71 Y62.133 E.02429
G1 X118.284 Y61.611 E.02433
G1 X118.953 Y61.219 E.02431
G1 X119.69 Y60.976 E.02433
G1 X120.46 Y60.891 E.02429
G1 X121.232 Y60.968 E.02433
G1 X121.971 Y61.203 E.02431
G1 X122.644 Y61.588 E.02431
G1 X123.251 Y62.134 E.0256
G1 X123.71 Y62.781 E.02487
G1 X124.002 Y63.436 E.02249
G1 X124.167 Y64.193 E.02429
G1 X124.171 Y64.968 E.0243
G1 X124.051 Y65.55 E.01863
M204 P1000
G1 X124.132 Y65.686 F9000
G1 E-2.24 F4200
;WIPE_START
G1 F7200
G1 X124.014 Y65.727 E-.10021
G1 X123.702 Y66.438 E-.43028
G1 X123.337 Y66.96 E-.35298
G1 X123.242 Y67.061 E-.07653
;WIPE_END
G1 Z.4 F720
G1 X119.564 Y60.103 F9000
G1 Z.2 F720
G1 E3.2 F2400
M204 P600
;TYPE:Perimeter
;WIDTH:0.670104
G1 F1200
G1 X119.968 Y60.082 E.0211
;WIDTH:0.626436
G1 X120.373 Y60.06 E.01968
;WIDTH:0.621356
G1 X120.848 Y60.079 E.02286
;WIDTH:0.659944
G1 X121.323 Y60.098 E.02439
M204 P1000
G1 E-2.24 F4200
;WIPE_START
G1 F7200
G1 X120.848 Y60.079 E-.26344
G1 X120.373 Y60.06 E-.26344
G1 X119.968 Y60.082 E-.22477
G1 X119.593 Y60.102 E-.20835
;WIPE_END
G1 Z.4 F720
G1 X124.962 Y64.024 F9000
G1 Z.2 F720
G1 E3.2 F2400
M204 P600
;WIDTH:0.538354
G1 F1200
G1 X124.973 Y64.968 E.03889
;WIDTH:0.531476
G1 X124.966 Y65.141 E.00703
M204 P1000
G1 E-2.24 F4200
;WIPE_START
G1 F7200
G1 X124.973 Y64.968 E-.09595
G1 X124.962 Y64.024 E-.52317
;WIPE_END
G1 E-.34088 F4200
G1 Z.4 F720
G1 X121.397 Y119.897 F9000
G1 Z.2 F720
G1 E3.2 F2400
M204 P600
;WIDTH:0.670184
G1 F1200
G1 X121.462 Y119.856 E.00401
;WIDTH:0.622543
G1 X121.527 Y119.815 E.0037
;WIDTH:0.574902
G1 X121.742 Y119.72 E.0104
;WIDTH:0.536177
G1 X121.956 Y119.624 E.00962
;WIDTH:0.497451
G1 X122.17 Y119.529 E.00885
;WIDTH:0.458725
G1 X122.384 Y119.434 E.0081
;WIDTH:0.419999
G1 X123.189 Y118.943 E.02956
G1 X123.899 Y118.262 E.03085
G1 X124.391 Y117.544 E.02729
G1 X124.751 Y116.684 E.02923
;WIDTH:0.457158
G1 X124.823 Y116.436 E.00889
;WIDTH:0.494317
G1 X124.894 Y116.189 E.00965
;WIDTH:0.531476
G1 X124.966 Y115.941 E.01049
G1 X124.971 Y115.976 E.00144
;WIDTH:0.521457
M73 P0 R99
G1 X124.988 Y116.222 E.00981
;WIDTH:0.487638
G1 X125.005 Y116.467 E.00908
;WIDTH:0.453819
G1 X125.022 Y116.713 E.00842
;WIDTH:0.419999
G1 X125.022 Y120.022 E.10375
G1 X122.284 Y120.022 E.08585
;WIDTH:0.458725
G1 X122.1 Y120.002 E.0064
;WIDTH:0.497451
G1 X121.916 Y119.983 E.00699
;WIDTH:0.536177
G1 X121.732 Y119.964 E.00759
;WIDTH:0.574902
G1 X121.548 Y119.944 E.00819
;WIDTH:0.622543
G1 X121.472 Y119.92 E.00384
;WIDTH:0.670184
G1 X121.454 Y119.915 E.00097
M204 P1000
G1 X120.478 Y119.479 F9000
M204 P600
;WIDTH:0.419999
G1 F1200
G1 X119.689 Y119.407 E.02484
G1 X118.873 Y119.155 E.02678
G1 X118.127 Y118.739 E.02678
G1 X117.484 Y118.177 E.02678
G1 X116.972 Y117.493 E.02679
G1 X116.614 Y116.718 E.02677
G1 X116.424 Y115.886 E.02676
G1 X116.412 Y115.032 E.02678
G1 X116.577 Y114.194 E.02678
G1 X116.913 Y113.409 E.02677
G1 X117.405 Y112.711 E.02678
G1 X118.031 Y112.13 E.02678
G1 X118.765 Y111.693 E.02678
G1 X119.573 Y111.417 E.02677
G1 X120.421 Y111.316 E.02678
G1 X120.966 Y111.344 E.01711
G1 X121.686 Y111.497 E.02308
G1 X122.471 Y111.833 E.02677
G1 X123.169 Y112.325 E.02678
G1 X123.594 Y112.761 E.01909
G1 X123.991 Y113.312 E.02129
G1 X124.346 Y114.082 E.02659
G1 X124.536 Y114.914 E.02676
G1 X124.548 Y115.768 E.02678
G1 X124.383 Y116.606 E.02678
G1 X124.047 Y117.391 E.02677
G1 X123.593 Y118.042 E.02489
G1 X122.933 Y118.665 E.02846
G1 X122.195 Y119.107 E.02697
G1 X121.387 Y119.383 E.02677
G1 X120.538 Y119.484 E.02681
M204 P1000
G1 X120.554 Y119.103 F9000
M204 P600
;TYPE:External perimeter
G1 F1200
G1 X119.728 Y119.032 E.02599
G1 X118.989 Y118.797 E.02431
G1 X118.316 Y118.412 E.02431
G1 X117.737 Y117.897 E.0243
G1 X117.278 Y117.272 E.02431
G1 X116.958 Y116.565 E.02433
G1 X116.793 Y115.807 E.02432
G1 X116.789 Y115.032 E.0243
G1 X116.946 Y114.273 E.0243
G1 X117.258 Y113.562 E.02434
G1 X117.71 Y112.933 E.02429
G1 X118.284 Y112.411 E.02433
G1 X118.953 Y112.019 E.02431
G1 X119.69 Y111.776 E.02433
G1 X120.46 Y111.691 E.02429
G1 X120.887 Y111.713 E.01341
G1 X121.607 Y111.866 E.02308
G1 X122.318 Y112.178 E.02434
G1 X122.948 Y112.63 E.02431
G1 X123.32 Y113.02 E.0169
G1 X123.684 Y113.53 E.01965
G1 X124.002 Y114.235 E.02425
G1 X124.167 Y114.993 E.02432
G1 X124.171 Y115.768 E.0243
G1 X124.014 Y116.527 E.0243
G1 X123.702 Y117.238 E.02434
G1 X123.287 Y117.822 E.02246
G1 X122.678 Y118.388 E.02607
G1 X122.007 Y118.781 E.02438
G1 X121.27 Y119.024 E.02433
G1 X120.614 Y119.097 E.0207
M204 P1000
G1 X120.36 Y119.453 F9000
G1 X121.397 Y119.897
M204 P600
;TYPE:Perimeter
;WIDTH:0.670184
G1 F1200
G1 X120.992 Y119.918 E.02115
;WIDTH:0.626481
G1 X120.587 Y119.94 E.01968
;WIDTH:0.621363
G1 X120.112 Y119.921 E.02286
;WIDTH:0.659948
G1 X119.637 Y119.902 E.02439
M204 P1000
G1 E-2.24 F4200
;WIPE_START
G1 F7200
G1 X120.112 Y119.921 E-.26344
G1 X120.587 Y119.94 E-.26344
G1 X120.992 Y119.918 E-.22477
G1 X121.367 Y119.899 E-.20835
;WIPE_END
G1 Z.4 F720
G1 X124.962 Y114.824 F9000
G1 Z.2 F720
G1 E3.2 F2400
M204 P600
;WIDTH:0.538354
G1 F1200
G1 X124.973 Y115.768 E.03889
