; generated by PrusaSlicer 2.6.0+linux-x64-GTK3 on 2023-07-15 at 09:55:12 UTC


;
;

;
;
; 

; external perimeters extrusion width = 0.45mm
; perimeters extrusion width = 0.45mm
; infill extrusion width = 0.45mm
; solid infill extrusion width = 0.45mm
; top infill extrusion width = 0.40mm
; first layer extrusion width = 0.42mm

M73 P0 R29
M201 X2500 Y2500 Z400 E5000 ; sets maximum accelerations, mm/sec^2
M203 X180 Y180 Z12 E80 ; sets maximum feedrates, mm / sec
M204 P2000 R1250 T2500 ; sets acceleration (P, T) and retract acceleration (R), mm/sec^2
M205 X8.00 Y8.00 Z2.00 E10.00 ; sets the jerk limits, mm/sec
M205 S0 T0 ; sets the minimum extruding and travel feed rate, mm/sec
;TYPE:Custom
M862.3 P "MINI" ; printer model check
G90 ; use absolute coordinates
M83 ; extruder relative mode
M104 S170 ; set extruder temp for bed leveling
M140 S60 ; set bed temp
M109 R170 ; wait for bed leveling temp
M190 S60 ; wait for bed temp
M204 T1250 ; set travel acceleration
G28 ; home all without mesh bed level
G29 ; mesh bed leveling 
M204 T2500 ; restore travel acceleration
M104 S215 ; set extruder temp
G92 E0
G1 Y-2 X179 F2400
G1 Z3 F720
M109 S215 ; wait for extruder temp

; intro line
G1 X170 F1000
G1 Z0.2 F720
G1 X110 E8 F900
G1 X40 E10 F700
G92 E0

M221 S95 ; set flow
G21 ; set units to millimeters
G90 ; use absolute coordinates
M83 ; use relative distances for extrusion
M900 K0.2 ; Filament gcode LA 1.5
; ; Filament gcode LA 1.0
M107
;LAYER_CHANGE
;Z:0.2
;HEIGHT:0.2
;BEFORE_LAYER_CHANGE
G92 E0.0
;0.2


G1 E-3.2 F4200
G1 Z.2 F720
;AFTER_LAYER_CHANGE
;0.2
G1 Z.4
G1 X77.37 Y77.525 F9000
G1 Z.2 F720
G1 E3.2 F2400
M204 P600
;TYPE:Skirt/Brim
;WIDTH:0.42
G1 F1200
G1 X78.389 Y76.571 E.04377
G1 X79.653 Y75.575 E.05046
G1 X80.817 Y74.807 E.04372
G1 X82.091 Y74.109 E.04555
G1 X84.411 Y73.15 E.07871
G1 X85.751 Y72.764 E.04372
G1 X87.33 Y72.45 E.05048
G1 X88.715 Y72.294 E.0437
G1 X91.285 Y72.294 E.08058
G1 X92.884 Y72.483 E.05048
G1 X94.249 Y72.764 E.0437
G1 X95.589 Y73.15 E.04372
G1 X97.963 Y74.134 E.08058
G1 X99.183 Y74.807 E.04369
G1 X100.522 Y75.702 E.0505
G1 X101.611 Y76.571 E.04368
G1 X103.429 Y78.389 E.08061
M73 P1 R29
G1 X104.298 Y79.478 E.04368
G1 X105.193 Y80.817 E.0505
G1 X105.866 Y82.037 E.04369
G1 X106.85 Y84.411 E.08058
G1 X107.236 Y85.751 E.04372
G1 X107.55 Y87.33 E.05048
G1 X107.752 Y89.892 E.08058
G1 X107.706 Y91.285 E.0437
G1 X107.55 Y92.67 E.0437
G1 X107.236 Y94.249 E.05048
G1 X106.85 Y95.589 E.04372
G1 X105.866 Y97.963 E.08058
G1 X105.193 Y99.183 E.04369
G1 X104.298 Y100.522 E.0505
G1 X102.629 Y102.476 E.08057
G1 X101.611 Y103.429 E.04372
G1 X100.522 Y104.298 E.04368
G1 X99.183 Y105.193 E.0505
G1 X97.963 Y105.866 E.04369
G1 X95.589 Y106.85 E.08058
G1 X94.039 Y107.287 E.05049
G1 X92.67 Y107.55 E.04371
G1 X90.108 Y107.752 E.08058
G1 X88.715 Y107.706 E.0437
G1 X87.33 Y107.55 E.0437
G1 X85.751 Y107.236 E.05048
G1 X84.411 Y106.85 E.04372
G1 X82.037 Y105.866 E.08058
G1 X80.817 Y105.193 E.04369
G1 X79.478 Y104.298 E.0505
G1 X77.524 Y102.629 E.08057
G1 X76.571 Y101.611 E.04372
G1 X75.702 Y100.522 E.04368
G1 X74.807 Y99.183 E.0505
G1 X73.646 Y96.906 E.08014
G1 X73.151 Y95.591 E.04406
G1 X72.764 Y94.249 E.04379
G1 X72.452 Y92.684 E.05004
G1 X72.294 Y91.285 E.04414
G1 X72.294 Y88.715 E.08058
G1 X72.45 Y87.33 E.0437
G1 X72.764 Y85.751 E.05048
G1 X73.557 Y83.308 E.08053
G1 X74.129 Y82.048 E.04339
G1 X74.806 Y80.819 E.04399
G1 X75.702 Y79.478 E.05057
G1 X77.331 Y77.571 E.07864
M204 P1000
G1 X77.617 Y77.816 F9000
M204 P600
G1 F1200
G1 X78.645 Y76.848 E.04427
G1 X79.863 Y75.888 E.04863
G1 X81.001 Y75.136 E.04277
G1 X82.248 Y74.452 E.04459
G1 X84.542 Y73.504 E.07783
G1 X85.853 Y73.127 E.04277
G1 X87.374 Y72.824 E.04863
G1 X88.73 Y72.671 E.04279
G1 X91.27 Y72.671 E.07964
G1 X92.81 Y72.853 E.04862
G1 X94.147 Y73.127 E.04279
G1 X95.458 Y73.504 E.04277
G1 X97.805 Y74.476 E.07965
G1 X98.999 Y75.136 E.04278
G1 X100.288 Y75.998 E.04862
G1 X101.399 Y76.888 E.04463
G1 X103.152 Y78.645 E.07782
G1 X104.002 Y79.712 E.04277
G1 X104.864 Y81.001 E.04862
G1 X105.524 Y82.195 E.04278
G1 X106.496 Y84.542 E.07965
G1 X106.917 Y86.035 E.04864
G1 X107.176 Y87.374 E.04276
G1 X107.329 Y88.73 E.04279
G1 X107.329 Y91.27 E.07964
G1 X107.147 Y92.81 E.04862
G1 X106.873 Y94.147 E.04279
G1 X106.496 Y95.458 E.04277
G1 X105.524 Y97.805 E.07965
G1 X104.766 Y99.158 E.04863
G1 X104.002 Y100.288 E.04277
G1 X102.352 Y102.22 E.07966
G1 X101.355 Y103.152 E.04279
G1 X100.288 Y104.002 E.04277
G1 X98.999 Y104.864 E.04862
G1 X97.805 Y105.524 E.04278
G1 X95.458 Y106.496 E.07965
G1 X93.965 Y106.917 E.04864
G1 X92.626 Y107.176 E.04276
G1 X91.27 Y107.329 E.04279
G1 X88.73 Y107.329 E.07964
G1 X87.374 Y107.176 E.04279
G1 X85.853 Y106.873 E.04863
G1 X84.542 Y106.496 E.04277
G1 X82.195 Y105.524 E.07965
G1 X81.001 Y104.864 E.04278
G1 X79.712 Y104.002 E.04862
G1 X78.645 Y103.152 E.04277
G1 X76.848 Y101.355 E.07968
G1 X75.998 Y100.288 E.04277
G1 X75.136 Y98.999 E.04862
G1 X73.989 Y96.748 E.07921
G1 X73.505 Y95.46 E.04314
G1 X73.127 Y94.147 E.04284
G1 X72.827 Y92.639 E.04821
G1 X72.671 Y91.27 E.0432
G1 X72.671 Y88.73 E.07964
G1 X72.824 Y87.374 E.04279
G1 X73.127 Y85.853 E.04863
G1 X73.911 Y83.439 E.07958
G1 X74.471 Y82.206 E.04246
G1 X75.136 Y81.003 E.0431
G1 X75.998 Y79.712 E.04867
G1 X77.578 Y77.861 E.07631
M204 P1000
; printing object RC_cnob.stl id:0 copy 0
G1 E-2.24 F4200
;WIPE_START
G1 F7200
G1 X78.645 Y76.848 E-.81533
G1 X78.85 Y76.686 E-.14467
;WIPE_END
G1 Z.4 F720
G1 X88.857 Y75.532 F9000
G1 Z.2 F720
G1 E3.2 F2400
M204 P600
;TYPE:External perimeter
;WIDTH:0.570877
G1 F1200
G1 X89.943 Y75.488 E.04771
;WIDTH:0.571874
G1 X91.107 Y75.529 E.05123
;WIDTH:0.570881
G1 X92.301 Y75.671 E.05279
G1 X93.358 Y75.881 E.04731
G1 X94.431 Y76.181 E.04891
;WIDTH:0.571878
G1 X95.524 Y76.58 E.05118
;WIDTH:0.570881
G1 X96.616 Y77.083 E.05278
G1 X97.556 Y77.609 E.04729
G1 X98.484 Y78.226 E.04892
;WIDTH:0.571877
G1 X99.401 Y78.943 E.0512
;WIDTH:0.570881
G1 X100.24 Y79.716 E.05008
G1 X101.056 Y80.598 E.05275
;WIDTH:0.571877
G1 X101.774 Y81.516 E.05126
;WIDTH:0.570882
G1 X102.391 Y82.444 E.04892
G1 X102.917 Y83.384 E.04729
G1 X103.42 Y84.475 E.05274
;WIDTH:0.571877
G1 X103.819 Y85.569 E.05122
;WIDTH:0.570882
G1 X104.119 Y86.642 E.04891
G1 X104.339 Y87.76 E.05002
G1 X104.466 Y88.83 E.0473
G1 X104.513 Y89.969 E.05004
;WIDTH:0.571085
G1 X104.514 Y90.01 E.0018
G1 X104.513 Y90.031 E.00092
;WIDTH:0.570881
G1 X104.471 Y91.108 E.04732
G1 X104.339 Y92.24 E.05003
G1 X104.105 Y93.418 E.05272
G1 X103.812 Y94.455 E.04731
G1 X103.42 Y95.525 E.05003
G1 X102.917 Y96.616 E.05274
G1 X102.391 Y97.556 E.04729
G1 X101.76 Y98.505 E.05003
G1 X101.016 Y99.449 E.05277
G1 X100.24 Y100.284 E.05004
G1 X99.449 Y101.016 E.04731
G1 X98.556 Y101.723 E.05
G1 X97.631 Y102.344 E.04891
;WIDTH:0.571878
G1 X96.617 Y102.917 E.05123
;WIDTH:0.570881
G1 X95.525 Y103.42 E.05278
G1 X94.455 Y103.812 E.05003
G1 X93.358 Y104.119 E.05001
G1 X92.301 Y104.329 E.04731
G1 X91.17 Y104.466 E.05001
G1 X90.031 Y104.513 E.05004
G1 X88.892 Y104.471 E.05004
G1 X87.76 Y104.339 E.05003
G1 X86.642 Y104.119 E.05002
G1 X85.486 Y103.793 E.05273
G1 X84.475 Y103.42 E.04731
G1 X83.439 Y102.945 E.05003
G1 X82.444 Y102.391 E.04999
G1 X81.516 Y101.774 E.04892
;WIDTH:0.571876
G1 X80.599 Y101.057 E.0512
;WIDTH:0.570882
G1 X79.76 Y100.284 E.05008
G1 X78.944 Y99.402 E.05275
;WIDTH:0.571878
G1 X78.226 Y98.484 E.05126
;WIDTH:0.570882
G1 X77.609 Y97.556 E.04892
G1 X77.083 Y96.616 E.04729
G1 X76.58 Y95.525 E.05274
G1 X76.207 Y94.514 E.04731
G1 X75.895 Y93.418 E.05003
G1 X75.671 Y92.301 E.05001
G1 X75.529 Y91.108 E.05274
G1 X75.487 Y89.969 E.05004
G1 X75.534 Y88.83 E.05004
G1 X75.671 Y87.699 E.05001
G1 X75.881 Y86.642 E.04731
G1 X76.207 Y85.486 E.05273
G1 X76.604 Y84.417 E.05006
G1 X77.083 Y83.384 E.04999
G1 X77.609 Y82.444 E.04729
G1 X78.24 Y81.495 E.05003
G1 X78.984 Y80.551 E.05277
G1 X79.76 Y79.716 E.05004
G1 X80.598 Y78.944 E.05002
G1 X81.444 Y78.277 E.04729
G1 X82.369 Y77.656 E.04891
;WIDTH:0.571879
G1 X83.383 Y77.083 E.05123
;WIDTH:0.570877
G1 X84.417 Y76.604 E.05003
G1 X85.545 Y76.188 E.05278
G1 X86.642 Y75.881 E.05001
G1 X87.699 Y75.671 E.04731
G1 X88.797 Y75.538 E.04855
M204 P1000
G1 X89.084 Y75.862 F9000
G1 E-2.24 F4200
;WIPE_START
G1 F7200
G1 X89.943 Y75.488 E-.63568
G1 X90.528 Y75.509 E-.32432
;WIPE_END
G1 Z.4 F720
G1 X80.086 Y80.137 F9000
G1 Z.2 F720
G1 E3.2 F2400
M204 P600
;WIDTH:0.570882
G1 F1200
M73 P1 R28
G1 X80.909 Y79.372 E.04933
G1 X81.771 Y78.692 E.0482
;WIDTH:0.571085
G1 X81.779 Y78.685 E.00047
G1 X81.788 Y78.679 E.00048
;WIDTH:0.570882
G1 X82.663 Y78.095 E.04618
;WIDTH:0.571879
G1 X83.641 Y77.544 E.04937
;WIDTH:0.570882
G1 X84.658 Y77.075 E.04917
G1 X85.688 Y76.696 E.04818
G1 X86.725 Y76.403 E.04731
G1 X87.822 Y76.185 E.0491
G1 X88.892 Y76.059 E.0473
G1 X89.964 Y76.016 E.0471
;WIDTH:0.571874
G1 X91.087 Y76.057 E.04943
;WIDTH:0.570883
G1 X92.198 Y76.188 E.04911
G1 X93.255 Y76.399 E.04732
G1 X94.287 Y76.689 E.04706
;WIDTH:0.571878
G1 X95.342 Y77.075 E.04941
;WIDTH:0.570882
G1 X96.358 Y77.544 E.04913
G1 X97.299 Y78.07 E.04733
G1 X98.191 Y78.665 E.04707
;WIDTH:0.571877
G1 X99.075 Y79.359 E.04943
;WIDTH:0.570881
G1 X99.897 Y80.118 E.04912
G1 X100.642 Y80.925 E.04822
;WIDTH:0.571877
G1 X101.335 Y81.809 E.0494
;WIDTH:0.570881
G1 X101.93 Y82.701 E.04707
G1 X102.456 Y83.642 E.04733
G1 X102.925 Y84.658 E.04913
;WIDTH:0.571877
G1 X103.311 Y85.713 E.04941
;WIDTH:0.570881
G1 X103.601 Y86.745 E.04706
G1 X103.812 Y87.802 E.04732
G1 X103.941 Y88.892 E.04819
G1 X103.985 Y89.99 E.04824
G1 X103.943 Y91.087 E.04819
G1 X103.815 Y92.178 E.04822
G1 X103.601 Y93.255 E.0482
G1 X103.304 Y94.312 E.0482
G1 X102.925 Y95.342 E.04818
G1 X102.466 Y96.34 E.04822
G1 X101.93 Y97.299 E.04823
G1 X101.321 Y98.212 E.04818
G1 X100.641 Y99.075 E.04823
G1 X99.897 Y99.882 E.04819
G1 X99.091 Y100.628 E.04821
G1 X98.229 Y101.308 E.0482
G1 X97.337 Y101.905 E.04712
;WIDTH:0.571878
G1 X96.359 Y102.456 E.04937
;WIDTH:0.57088
G1 X95.342 Y102.925 E.04917
G1 X94.312 Y103.304 E.04818
G1 X93.255 Y103.601 E.0482
M73 P2 R28
G1 X92.198 Y103.812 E.04732
G1 X91.108 Y103.941 E.04819
G1 X90.01 Y103.985 E.04824
G1 X88.913 Y103.943 E.04819
G1 X87.802 Y103.812 E.04911
G1 X86.725 Y103.597 E.04821
G1 X85.668 Y103.298 E.04822
G1 X84.658 Y102.925 E.04727
G1 X83.66 Y102.466 E.04822
G1 X82.701 Y101.93 E.04823
G1 X81.809 Y101.335 E.04707
;WIDTH:0.571876
G1 X80.925 Y100.641 E.04943
;WIDTH:0.570883
G1 X80.118 Y99.897 E.04819
G1 X79.358 Y99.075 E.04915
;WIDTH:0.571878
G1 X78.665 Y98.191 E.0494
;WIDTH:0.570882
G1 X78.07 Y97.299 E.04707
G1 X77.544 Y96.358 E.04733
G1 X77.083 Y95.362 E.04818
G1 X76.702 Y94.332 E.04821
G1 X76.403 Y93.275 E.04822
G1 X76.188 Y92.198 E.04821
G1 X76.059 Y91.108 E.04819
G1 X76.015 Y90.01 E.04824
G1 X76.057 Y88.913 E.04819
G1 X76.185 Y87.822 E.04822
G1 X76.399 Y86.745 E.0482
G1 X76.696 Y85.688 E.0482
G1 X77.083 Y84.638 E.04913
G1 X77.544 Y83.642 E.04818
G1 X78.081 Y82.684 E.04821
G1 X78.692 Y81.771 E.04823
G1 X79.359 Y80.925 E.04729
G1 X80.045 Y80.181 E.04443
M204 P1000
G1 X79.982 Y79.751 F9000
; stop printing object RC_cnob.stl id:0 copy 0
M106 S84.15
;LAYER_CHANGE
;Z:0.4
;HEIGHT:0.2
;BEFORE_LAYER_CHANGE
G92 E0.0
;0.4


G1 E-2.24 F4200
;WIPE_START
G1 F7200
G1 X80.909 Y79.372 E-.65593
G1 X81.34 Y79.032 E-.30407
;WIPE_END
G1 Z.4 F720
;AFTER_LAYER_CHANGE
;0.4
M104 S213 ; set temperature
G1 Z.6
G1 X79.012 Y76.08 F9000
G1 Z.4 F720
G1 E3.2 F2400
;TYPE:Skirt/Brim
;WIDTH:0.42
G1 X79.653 Y75.575 E.02559
G1 X80.817 Y74.807 E.04372
G1 X82.091 Y74.109 E.04555
G1 X84.411 Y73.15 E.07871
G1 X85.751 Y72.764 E.04372
G1 X87.33 Y72.45 E.05048
G1 X88.715 Y72.294 E.0437
G1 X91.285 Y72.294 E.08058
G1 X92.884 Y72.483 E.05048
G1 X94.249 Y72.764 E.0437
G1 X95.589 Y73.15 E.04372
G1 X97.963 Y74.134 E.08058
G1 X99.183 Y74.807 E.04369
G1 X100.522 Y75.702 E.0505
G1 X101.611 Y76.571 E.04368
G1 X103.429 Y78.389 E.08061
G1 X104.298 Y79.478 E.04368
G1 X105.193 Y80.817 E.0505
G1 X105.866 Y82.037 E.04369
G1 X106.85 Y84.411 E.08058
G1 X107.236 Y85.751 E.04372
G1 X107.55 Y87.33 E.05048
G1 X107.752 Y89.892 E.08058
G1 X107.706 Y91.285 E.0437
G1 X107.55 Y92.67 E.0437
G1 X107.236 Y94.249 E.05048
G1 X106.85 Y95.589 E.04372
G1 X105.866 Y97.963 E.08058
G1 X105.193 Y99.183 E.04369
G1 X104.298 Y100.522 E.0505
G1 X102.629 Y102.476 E.08057
G1 X101.611 Y103.429 E.04372
G1 X100.522 Y104.298 E.04368
G1 X99.183 Y105.193 E.0505
G1 X97.963 Y105.866 E.04369
G1 X95.589 Y106.85 E.08058
G1 X94.039 Y107.287 E.05049
G1 X92.67 Y107.55 E.04371
G1 X90.108 Y107.752 E.08058
G1 X88.715 Y107.706 E.0437
G1 X87.33 Y107.55 E.0437
G1 X85.751 Y107.236 E.05048
G1 X84.411 Y106.85 E.04372
G1 X82.037 Y105.866 E.08058
G1 X80.817 Y105.193 E.04369
G1 X79.478 Y104.298 E.0505
G1 X77.524 Y102.629 E.08057
G1 X76.571 Y101.611 E.04372
G1 X75.702 Y100.522 E.04368
G1 X74.807 Y99.183 E.0505
G1 X73.646 Y96.906 E.08014
G1 X73.151 Y95.591 E.04406
G1 X72.764 Y94.249 E.04379
G1 X72.452 Y92.684 E.05004
G1 X72.294 Y91.285 E.04414
G1 X72.294 Y88.715 E.08058
G1 X72.45 Y87.33 E.0437
G1 X72.764 Y85.751 E.05048
G1 X73.557 Y83.308 E.08053
G1 X74.129 Y82.048 E.04339
G1 X74.806 Y80.819 E.04399
G1 X75.702 Y79.478 E.05057
G1 X77.37 Y77.525 E.08053
G1 X78.389 Y76.571 E.04377
G1 X78.965 Y76.117 E.023
G1 X79.198 Y76.412 F9000
G1 F2400
G1 X79.863 Y75.888 E.02655
G1 X81.001 Y75.136 E.04277
G1 X82.248 Y74.452 E.04459
G1 X84.542 Y73.504 E.07783
G1 X85.853 Y73.127 E.04277
G1 X87.374 Y72.824 E.04863
G1 X88.73 Y72.671 E.04279
G1 X91.27 Y72.671 E.07964
G1 X92.81 Y72.853 E.04862
G1 X94.147 Y73.127 E.04279
G1 X95.458 Y73.504 E.04277
G1 X97.805 Y74.476 E.07965
G1 X98.999 Y75.136 E.04278
G1 X100.288 Y75.998 E.04862
G1 X101.399 Y76.888 E.04463
G1 X103.152 Y78.645 E.07782
G1 X104.002 Y79.712 E.04277
G1 X104.864 Y81.001 E.04862
G1 X105.524 Y82.195 E.04278
G1 X106.496 Y84.542 E.07965
G1 X106.917 Y86.035 E.04864
G1 X107.176 Y87.374 E.04276
G1 X107.329 Y88.73 E.04279
G1 X107.329 Y91.27 E.07964
G1 X107.147 Y92.81 E.04862
G1 X106.873 Y94.147 E.04279
G1 X106.496 Y95.458 E.04277
G1 X105.524 Y97.805 E.07965
G1 X104.766 Y99.158 E.04863
G1 X104.002 Y100.288 E.04277
G1 X102.352 Y102.22 E.07966
G1 X101.355 Y103.152 E.04279
G1 X100.288 Y104.002 E.04277
G1 X98.999 Y104.864 E.04862
G1 X97.805 Y105.524 E.04278
G1 X95.458 Y106.496 E.07965
G1 X93.965 Y106.917 E.04864
G1 X92.626 Y107.176 E.04276
G1 X91.27 Y107.329 E.04279
G1 X88.73 Y107.329 E.07964
G1 X87.374 Y107.176 E.04279
G1 X85.853 Y106.873 E.04863
G1 X84.542 Y106.496 E.04277
G1 X82.195 Y105.524 E.07965
G1 X81.001 Y104.864 E.04278
G1 X79.712 Y104.002 E.04862
G1 X78.645 Y103.152 E.04277
G1 X76.848 Y101.355 E.07968
G1 X75.998 Y100.288 E.04277
G1 X75.136 Y98.999 E.04862
G1 X73.989 Y96.748 E.07921
G1 X73.505 Y95.46 E.04314
G1 X73.127 Y94.147 E.04284
G1 X72.827 Y92.639 E.04821
G1 X72.671 Y91.27 E.0432
G1 X72.671 Y88.73 E.07964
G1 X72.824 Y87.374 E.04279
G1 X73.127 Y85.853 E.04863
G1 X73.911 Y83.439 E.07958
G1 X74.471 Y82.206 E.04246
G1 X75.136 Y81.003 E.0431
G1 X75.998 Y79.712 E.04867
G1 X77.647 Y77.781 E.07962
G1 X78.645 Y76.848 E.04284
G1 X79.151 Y76.449 E.0202
; printing object RC_cnob.stl id:0 copy 0
G1 E-2.24 F4200
;WIPE_START
G1 F7200
G1 X79.863 Y75.888 E-.50233
G1 X80.552 Y75.433 E-.45767
;WIPE_END
G1 Z.6 F720
G1 X88.865 Y75.636 F9000
G1 Z.4 F720
G1 E3.2 F2400
;TYPE:Perimeter
;WIDTH:0.363804
G1 F3000
G1 X89.913 Y75.595 E.02798
;WIDTH:0.365769
G1 X91.093 Y75.632 E.03169
;WIDTH:0.363803
G1 X92.22 Y75.763 E.03027
G1 X93.398 Y75.997 E.03204
G1 X94.486 Y76.307 E.03018
G1 X95.482 Y76.674 E.02832
G1 X96.511 Y77.145 E.03019
G1 X97.499 Y77.696 E.03018
G1 X98.498 Y78.363 E.03205
G1 X99.385 Y79.066 E.0302
G1 X100.164 Y79.787 E.02832
G1 X100.98 Y80.669 E.03206
;WIDTH:0.365835
G1 X101.707 Y81.603 E.03178
;WIDTH:0.363802
G1 X102.304 Y82.501 E.02877
G1 X102.855 Y83.489 E.03018
G1 X103.299 Y84.454 E.02834
G1 X103.693 Y85.514 E.03017
G1 X104.019 Y86.67 E.03205
G1 X104.237 Y87.78 E.03018
G1 X104.362 Y88.835 E.02835
;WIDTH:0.364083
G1 X104.366 Y88.876 E.0011
G1 X104.368 Y88.904 E.00075
;WIDTH:0.363803
G1 X104.409 Y89.965 E.02833
G1 X104.368 Y91.096 E.0302
G1 X104.237 Y92.22 E.03019
G1 X104.019 Y93.33 E.03018
G1 X103.716 Y94.414 E.03003
G1 X103.326 Y95.482 E.03034
