; generated by PrusaSlicer 2.6.0+linux-x64-GTK3 on 2023-08-12 at 00:34:42 UTC


;
;

;
;
; 

; external perimeters extrusion width = 0.45mm
; perimeters extrusion width = 0.45mm
; infill extrusion width = 0.45mm
; solid infill extrusion width = 0.45mm
; top infill extrusion width = 0.40mm
; first layer extrusion width = 0.42mm

M73 P0 R6
M201 X2500 Y2500 Z400 E5000 ; sets maximum accelerations, mm/sec^2
M203 X180 Y180 Z12 E80 ; sets maximum feedrates, mm / sec
M204 P2000 R1250 T2500 ; sets acceleration (P, T) and retract acceleration (R), mm/sec^2
M205 X8.00 Y8.00 Z2.00 E10.00 ; sets the jerk limits, mm/sec
M205 S0 T0 ; sets the minimum extruding and travel feed rate, mm/sec
;TYPE:Custom
M862.3 P "MINI" ; printer model check
G90 ; use absolute coordinates
M83 ; extruder relative mode
M104 S170 ; set extruder temp for bed leveling
M140 S60 ; set bed temp
M109 R170 ; wait for bed leveling temp
M190 S60 ; wait for bed temp
M204 T1250 ; set travel acceleration
G28 ; home all without mesh bed level
G29 ; mesh bed leveling 
M204 T2500 ; restore travel acceleration
M104 S215 ; set extruder temp
G92 E0
G1 Y-2 X179 F2400
G1 Z3 F720
M109 S215 ; wait for extruder temp

; intro line
M73 P1 R5
G1 X170 F1000
G1 Z0.2 F720
G1 X110 E8 F900
G1 X40 E10 F700
G92 E0

M221 S95 ; set flow
G21 ; set units to millimeters
G90 ; use absolute coordinates
M83 ; use relative distances for extrusion
M900 K0.2 ; Filament gcode LA 1.5
; ; Filament gcode LA 1.0
M107
;LAYER_CHANGE
;Z:0.2
;HEIGHT:0.2
;BEFORE_LAYER_CHANGE
G92 E0.0
;0.2


M73 P2 R5
G1 E-3.2 F4200
M73 P4 R5
G1 Z.2 F720
;AFTER_LAYER_CHANGE
;0.2
G1 Z.4
G1 X76.373 Y76.928 F9000
G1 Z.2 F720
G1 E3.2 F2400
M204 P600
;TYPE:Skirt/Brim
;WIDTH:0.42
G1 F1200
G1 X77.091 Y76.242 E.03114
G1 X77.787 Y75.795 E.02594
G1 X78.669 Y75.438 E.02983
G1 X79.647 Y75.261 E.03116
G1 X100.144 Y75.25 E.64267
G1 X100.847 Y75.323 E.02216
G1 X101.644 Y75.542 E.02592
G1 X102.5 Y75.958 E.02984
G1 X103.072 Y76.373 E.02216
G1 X103.758 Y77.091 E.03114
G1 X104.186 Y77.75 E.02464
G1 X104.562 Y78.669 E.03113
G1 X104.709 Y79.36 E.02215
G1 X104.75 Y100.144 E.65167
G1 X104.677 Y100.847 E.02216
M73 P5 R5
G1 X104.473 Y101.605 E.02461
G1 X104.186 Y102.25 E.02214
G1 X103.627 Y103.071 E.03114
G1 X102.909 Y103.758 E.03116
G1 X102.064 Y104.281 E.03116
G1 X101.129 Y104.617 E.03115
G1 X100 Y104.754 E.03566
G1 X79.856 Y104.75 E.6316
G1 X79.153 Y104.677 E.02216
G1 X78.395 Y104.473 E.02461
G1 X77.5 Y104.042 E.03115
G1 X76.928 Y103.627 E.02216
G1 X76.242 Y102.909 E.03114
G1 X75.719 Y102.064 E.03116
G1 X75.383 Y101.129 E.03115
G1 X75.246 Y100 E.03566
G1 X75.25 Y79.856 E.6316
G1 X75.323 Y79.153 E.02216
G1 X75.538 Y78.366 E.02558
G1 X75.958 Y77.5 E.03018
G1 X76.338 Y76.977 E.02027
M204 P1000
M73 P6 R5
G1 X76.643 Y77.198 F9000
M204 P600
G1 F1200
G1 X77.329 Y76.535 E.02991
G1 X77.958 Y76.131 E.02344
G1 X78.767 Y75.802 E.02738
G1 X79.667 Y75.637 E.02869
G1 X100.124 Y75.626 E.64141
G1 X100.788 Y75.696 E.02093
G1 X101.509 Y75.894 E.02344
G1 X102.295 Y76.274 E.02737
G1 X102.834 Y76.666 E.0209
G1 X103.465 Y77.328 E.02868
G1 X103.85 Y77.921 E.02217
G1 X104.121 Y78.53 E.0209
G1 X104.337 Y79.419 E.02868
G1 X104.374 Y100.124 E.64919
G1 X104.304 Y100.788 E.02093
G1 X104.121 Y101.47 E.02214
G1 X103.85 Y102.079 E.0209
G1 X103.334 Y102.834 E.02867
G1 X102.672 Y103.465 E.02868
G1 X101.893 Y103.945 E.02869
G1 X101.031 Y104.252 E.02869
G1 X100 Y104.377 E.03256
G1 X79.876 Y104.374 E.63097
G1 X79.212 Y104.304 E.02093
M73 P7 R5
G1 X78.53 Y104.121 E.02214
G1 X77.705 Y103.726 E.02868
G1 X77.166 Y103.334 E.0209
G1 X76.535 Y102.672 E.02868
G1 X76.055 Y101.893 E.02869
G1 X75.748 Y101.031 E.02869
G1 X75.623 Y100 E.03256
G1 X75.626 Y79.876 E.63097
G1 X75.696 Y79.212 E.02093
G1 X75.89 Y78.501 E.02311
G1 X76.274 Y77.705 E.02771
G1 X76.607 Y77.247 E.01775
M204 P1000
; printing object btn.stl id:0 copy 8
G1 E-2.24 F4200
;WIPE_START
G1 F7200
G1 X77.329 Y76.535 E-.56193
G1 X77.933 Y76.147 E-.39807
;WIPE_END
G1 Z.4 F720
G1 X81.037 Y79.381 F9000
G1 Z.2 F720
G1 E3.2 F2400
M204 P600
;TYPE:Perimeter
;WIDTH:0.419999
G1 F1200
G1 X81.196 Y79.874 E.01624
G1 X81.144 Y80.387 E.01617
G1 X80.985 Y80.69 E.01073
G1 X80.711 Y80.978 E.01246
G1 X80.395 Y81.136 E.01108
G1 X80.011 Y81.188 E.01215
G1 X79.628 Y81.151 E.01206
G1 X79.302 Y80.979 E.01156
G1 X79.022 Y80.711 E.01215
G1 X78.857 Y80.374 E.01176
G1 X78.791 Y80 E.01191
G1 X78.855 Y79.631 E.01174
G1 X79.022 Y79.289 E.01193
G1 X79.285 Y79.033 E.01151
G1 X79.61 Y78.857 E.01159
G1 X80.041 Y78.794 E.01366
G1 X80.492 Y78.895 E.01449
G1 X80.799 Y79.101 E.01159
G1 X80.998 Y79.335 E.00963
M204 P1000
G1 X81.321 Y79.14 F9000
M204 P600
;TYPE:External perimeter
G1 F1200
G1 X81.373 Y79.202 E.00254
G1 X81.496 Y79.523 E.01078
G1 X81.571 Y79.835 E.01006
G1 X81.588 Y79.995 E.00504
G1 X81.537 Y80.315 E.01016
G1 X81.435 Y80.661 E.01131
G1 X81.181 Y81.063 E.01491
G1 X80.798 Y81.363 E.01525
G1 X80.336 Y81.552 E.01565
G1 X79.8 Y81.574 E.01682
G1 X79.51 Y81.511 E.0093
G1 X79.08 Y81.284 E.01525
G1 X78.715 Y80.934 E.01586
G1 X78.498 Y80.491 E.01547
G1 X78.411 Y80 E.01563
G1 X78.497 Y79.514 E.01547
G1 X78.715 Y79.066 E.01562
G1 X79.063 Y78.728 E.01521
G1 X79.504 Y78.492 E.01568
G1 X79.812 Y78.446 E.00976
G1 X80.198 Y78.432 E.01211
G1 X80.646 Y78.549 E.01452
G1 X81.051 Y78.821 E.0153
G1 X81.282 Y79.094 E.01121
M204 P1000
G1 X81.298 Y79.217 F9000
G1 X81.02 Y79.825
M204 P600
;TYPE:Solid infill
;WIDTH:0.465438
G1 F1200
G1 X80.468 Y79.273 E.02743
G1 X80.357 Y79.209 E.0045
G1 X80.047 Y79.136 E.01119
G1 X79.774 Y79.176 E.00969
G1 X80.826 Y80.228 E.05227
G1 X80.752 Y80.434 E.00769
G1 X80.611 Y80.611 E.00795
G1 X79.389 Y79.389 E.06071
G1 X79.298 Y79.49 E.00478
G1 X79.207 Y79.647 E.00638
G1 X79.168 Y79.766 E.0044
G1 X80.234 Y80.832 E.05296
G1 X80.208 Y80.84 E.00096
G1 X79.863 Y80.855 E.01213
G1 X79.734 Y80.827 E.00464
G1 X79.566 Y80.752 E.00646
G1 X78.98 Y80.175 E.02889
M204 P1000
; stop printing object btn.stl id:0 copy 8
; printing object btn.stl id:0 copy 4
G1 E-2.24 F4200
;WIPE_START
M73 P8 R5
G1 F7200
G1 X79.566 Y80.752 E-.45574
G1 X79.734 Y80.827 E-.10196
G1 X79.863 Y80.855 E-.07315
G1 X80.208 Y80.84 E-.19137
G1 X80.234 Y80.832 E-.01507
G1 X80.077 Y80.675 E-.12271
;WIPE_END
G1 Z.4 F720
G1 X91.037 Y79.381 F9000
G1 Z.2 F720
G1 E3.2 F2400
M204 P600
;TYPE:Perimeter
;WIDTH:0.419999
G1 F1200
G1 X91.196 Y79.874 E.01624
G1 X91.144 Y80.387 E.01617
G1 X90.985 Y80.69 E.01073
G1 X90.711 Y80.978 E.01246
G1 X90.395 Y81.136 E.01108
G1 X90.011 Y81.188 E.01215
G1 X89.628 Y81.151 E.01206
G1 X89.302 Y80.979 E.01156
G1 X89.022 Y80.711 E.01215
G1 X88.857 Y80.374 E.01176
G1 X88.791 Y80 E.01191
G1 X88.855 Y79.631 E.01174
G1 X89.022 Y79.289 E.01193
G1 X89.285 Y79.033 E.01151
G1 X89.61 Y78.857 E.01159
G1 X90.041 Y78.794 E.01366
G1 X90.492 Y78.895 E.01449
G1 X90.799 Y79.101 E.01159
G1 X90.998 Y79.335 E.00963
M204 P1000
G1 X91.321 Y79.14 F9000
M204 P600
;TYPE:External perimeter
G1 F1200
G1 X91.373 Y79.202 E.00254
G1 X91.496 Y79.523 E.01078
G1 X91.571 Y79.835 E.01006
G1 X91.588 Y79.995 E.00504
G1 X91.537 Y80.315 E.01016
G1 X91.435 Y80.661 E.01131
G1 X91.181 Y81.063 E.01491
G1 X90.798 Y81.363 E.01525
G1 X90.336 Y81.552 E.01565
G1 X89.8 Y81.574 E.01682
G1 X89.51 Y81.511 E.0093
G1 X89.08 Y81.284 E.01525
G1 X88.715 Y80.934 E.01586
G1 X88.498 Y80.491 E.01547
G1 X88.411 Y80 E.01563
G1 X88.497 Y79.514 E.01547
G1 X88.715 Y79.066 E.01562
G1 X89.063 Y78.728 E.01521
G1 X89.504 Y78.492 E.01568
G1 X89.812 Y78.446 E.00976
G1 X90.198 Y78.432 E.01211
G1 X90.646 Y78.549 E.01452
G1 X91.051 Y78.821 E.0153
G1 X91.282 Y79.094 E.01121
M204 P1000
G1 X91.298 Y79.217 F9000
G1 X91.02 Y79.825
M204 P600
;TYPE:Solid infill
;WIDTH:0.465438
G1 F1200
G1 X90.468 Y79.273 E.02743
G1 X90.357 Y79.209 E.0045
G1 X90.047 Y79.136 E.01119
G1 X89.774 Y79.176 E.00969
G1 X90.826 Y80.228 E.05227
G1 X90.752 Y80.434 E.00769
G1 X90.611 Y80.611 E.00795
G1 X89.389 Y79.389 E.06071
G1 X89.298 Y79.49 E.00478
G1 X89.207 Y79.647 E.00638
G1 X89.168 Y79.766 E.0044
G1 X90.234 Y80.832 E.05296
G1 X90.208 Y80.84 E.00096
G1 X89.863 Y80.855 E.01213
G1 X89.734 Y80.827 E.00464
G1 X89.566 Y80.752 E.00646
G1 X88.98 Y80.175 E.02889
M204 P1000
; stop printing object btn.stl id:0 copy 4
; printing object btn.stl id:0 copy 5
G1 E-2.24 F4200
;WIPE_START
G1 F7200
G1 X89.566 Y80.752 E-.45574
G1 X89.734 Y80.827 E-.10196
G1 X89.863 Y80.855 E-.07315
G1 X90.208 Y80.84 E-.19137
G1 X90.234 Y80.832 E-.01507
G1 X90.077 Y80.675 E-.12271
;WIPE_END
G1 Z.4 F720
G1 X101.037 Y79.381 F9000
G1 Z.2 F720
G1 E3.2 F2400
M204 P600
;TYPE:Perimeter
;WIDTH:0.419999
G1 F1200
G1 X101.196 Y79.874 E.01624
G1 X101.144 Y80.387 E.01617
G1 X100.985 Y80.69 E.01073
G1 X100.711 Y80.978 E.01246
G1 X100.395 Y81.136 E.01108
G1 X100.011 Y81.188 E.01215
G1 X99.628 Y81.151 E.01206
G1 X99.302 Y80.979 E.01156
G1 X99.022 Y80.711 E.01215
G1 X98.857 Y80.374 E.01176
G1 X98.791 Y80 E.01191
G1 X98.855 Y79.631 E.01174
G1 X99.022 Y79.289 E.01193
G1 X99.285 Y79.033 E.01151
G1 X99.61 Y78.857 E.01159
G1 X100.041 Y78.794 E.01366
G1 X100.492 Y78.895 E.01449
G1 X100.799 Y79.101 E.01159
G1 X100.998 Y79.335 E.00963
M204 P1000
G1 X101.321 Y79.14 F9000
M204 P600
;TYPE:External perimeter
G1 F1200
G1 X101.373 Y79.202 E.00254
G1 X101.496 Y79.523 E.01078
G1 X101.571 Y79.835 E.01006
G1 X101.588 Y79.995 E.00504
G1 X101.537 Y80.315 E.01016
G1 X101.435 Y80.661 E.01131
G1 X101.181 Y81.063 E.01491
G1 X100.798 Y81.363 E.01525
G1 X100.336 Y81.552 E.01565
G1 X99.8 Y81.574 E.01682
G1 X99.51 Y81.511 E.0093
G1 X99.08 Y81.284 E.01525
G1 X98.715 Y80.934 E.01586
G1 X98.498 Y80.491 E.01547
G1 X98.411 Y80 E.01563
G1 X98.497 Y79.514 E.01547
G1 X98.715 Y79.066 E.01562
G1 X99.063 Y78.728 E.01521
G1 X99.504 Y78.492 E.01568
G1 X99.812 Y78.446 E.00976
G1 X100.198 Y78.432 E.01211
G1 X100.646 Y78.549 E.01452
G1 X101.051 Y78.821 E.0153
G1 X101.282 Y79.094 E.01121
M204 P1000
G1 X101.298 Y79.217 F9000
G1 X101.02 Y79.825
M204 P600
;TYPE:Solid infill
;WIDTH:0.465438
G1 F1200
G1 X100.468 Y79.273 E.02743
G1 X100.357 Y79.209 E.0045
G1 X100.047 Y79.136 E.01119
G1 X99.774 Y79.176 E.00969
G1 X100.826 Y80.228 E.05227
G1 X100.752 Y80.434 E.00769
G1 X100.611 Y80.611 E.00795
G1 X99.389 Y79.389 E.06071
G1 X99.298 Y79.49 E.00478
G1 X99.207 Y79.647 E.00638
G1 X99.168 Y79.766 E.0044
G1 X100.234 Y80.832 E.05296
G1 X100.208 Y80.84 E.00096
M73 P9 R5
G1 X99.863 Y80.855 E.01213
G1 X99.734 Y80.827 E.00464
G1 X99.566 Y80.752 E.00646
G1 X98.98 Y80.175 E.02889
M204 P1000
; stop printing object btn.stl id:0 copy 5
; printing object btn.stl id:0 copy 1
G1 E-2.24 F4200
;WIPE_START
G1 F7200
G1 X99.566 Y80.752 E-.45574
G1 X99.734 Y80.827 E-.10196
G1 X99.863 Y80.855 E-.07315
G1 X100.208 Y80.84 E-.19137
G1 X100.234 Y80.832 E-.01507
G1 X100.077 Y80.675 E-.12271
;WIPE_END
G1 Z.4 F720
G1 X101.037 Y89.381 F9000
G1 Z.2 F720
G1 E3.2 F2400
M204 P600
;TYPE:Perimeter
;WIDTH:0.419999
G1 F1200
G1 X101.196 Y89.874 E.01624
G1 X101.144 Y90.387 E.01617
G1 X100.985 Y90.69 E.01073
G1 X100.711 Y90.978 E.01246
G1 X100.395 Y91.136 E.01108
G1 X100.011 Y91.188 E.01215
G1 X99.628 Y91.151 E.01206
G1 X99.302 Y90.979 E.01156
G1 X99.022 Y90.711 E.01215
G1 X98.857 Y90.374 E.01176
G1 X98.791 Y90 E.01191
G1 X98.855 Y89.631 E.01174
G1 X99.022 Y89.289 E.01193
G1 X99.285 Y89.033 E.01151
G1 X99.61 Y88.857 E.01159
G1 X100.041 Y88.794 E.01366
G1 X100.492 Y88.895 E.01449
G1 X100.799 Y89.101 E.01159
G1 X100.998 Y89.335 E.00963
M204 P1000
G1 X101.321 Y89.14 F9000
M204 P600
;TYPE:External perimeter
G1 F1200
G1 X101.373 Y89.202 E.00254
G1 X101.496 Y89.523 E.01078
G1 X101.571 Y89.835 E.01006
G1 X101.588 Y89.995 E.00504
G1 X101.537 Y90.315 E.01016
G1 X101.435 Y90.661 E.01131
G1 X101.181 Y91.063 E.01491
G1 X100.798 Y91.363 E.01525
G1 X100.336 Y91.552 E.01565
G1 X99.8 Y91.574 E.01682
G1 X99.51 Y91.511 E.0093
G1 X99.08 Y91.284 E.01525
G1 X98.715 Y90.934 E.01586
G1 X98.498 Y90.491 E.01547
G1 X98.411 Y90 E.01563
G1 X98.497 Y89.514 E.01547
G1 X98.715 Y89.066 E.01562
G1 X99.063 Y88.728 E.01521
G1 X99.504 Y88.492 E.01568
G1 X99.812 Y88.446 E.00976
G1 X100.198 Y88.432 E.01211
G1 X100.646 Y88.549 E.01452
G1 X101.051 Y88.821 E.0153
G1 X101.282 Y89.094 E.01121
M204 P1000
G1 X101.298 Y89.217 F9000
G1 X101.02 Y89.825
M204 P600
;TYPE:Solid infill
;WIDTH:0.465438
G1 F1200
G1 X100.468 Y89.273 E.02743
G1 X100.357 Y89.209 E.0045
G1 X100.047 Y89.136 E.01119
G1 X99.774 Y89.176 E.00969
G1 X100.826 Y90.228 E.05227
G1 X100.752 Y90.434 E.00769
G1 X100.611 Y90.611 E.00795
G1 X99.389 Y89.389 E.06071
G1 X99.298 Y89.49 E.00478
G1 X99.207 Y89.647 E.00638
G1 X99.168 Y89.766 E.0044
G1 X100.234 Y90.832 E.05296
G1 X100.208 Y90.84 E.00096
G1 X99.863 Y90.855 E.01213
G1 X99.734 Y90.827 E.00464
G1 X99.566 Y90.752 E.00646
G1 X98.98 Y90.175 E.02889
M204 P1000
; stop printing object btn.stl id:0 copy 1
; printing object btn.stl id:0 copy 3
G1 E-2.24 F4200
;WIPE_START
G1 F7200
G1 X99.566 Y90.752 E-.45574
G1 X99.734 Y90.827 E-.10196
G1 X99.863 Y90.855 E-.07315
G1 X100.208 Y90.84 E-.19137
G1 X100.234 Y90.832 E-.01507
G1 X100.077 Y90.675 E-.12271
;WIPE_END
G1 Z.4 F720
G1 X101.037 Y99.381 F9000
G1 Z.2 F720
G1 E3.2 F2400
M204 P600
;TYPE:Perimeter
;WIDTH:0.419999
G1 F1200
G1 X101.196 Y99.874 E.01624
G1 X101.144 Y100.387 E.01617
G1 X100.985 Y100.69 E.01073
G1 X100.711 Y100.978 E.01246
G1 X100.395 Y101.136 E.01108
G1 X100.011 Y101.188 E.01215
G1 X99.628 Y101.151 E.01206
G1 X99.302 Y100.979 E.01156
G1 X99.022 Y100.711 E.01215
G1 X98.857 Y100.374 E.01176
G1 X98.791 Y100 E.01191
G1 X98.855 Y99.631 E.01174
G1 X99.022 Y99.289 E.01193
G1 X99.285 Y99.033 E.01151
G1 X99.61 Y98.857 E.01159
G1 X100.041 Y98.794 E.01366
G1 X100.492 Y98.895 E.01449
G1 X100.799 Y99.101 E.01159
G1 X100.998 Y99.335 E.00963
M204 P1000
G1 X101.321 Y99.14 F9000
M204 P600
;TYPE:External perimeter
G1 F1200
G1 X101.373 Y99.202 E.00254
G1 X101.496 Y99.523 E.01078
G1 X101.571 Y99.835 E.01006
G1 X101.588 Y99.995 E.00504
G1 X101.537 Y100.315 E.01016
G1 X101.435 Y100.661 E.01131
G1 X101.181 Y101.063 E.01491
G1 X100.798 Y101.363 E.01525
G1 X100.336 Y101.552 E.01565
G1 X99.8 Y101.574 E.01682
G1 X99.51 Y101.511 E.0093
G1 X99.08 Y101.284 E.01525
G1 X98.715 Y100.934 E.01586
G1 X98.498 Y100.491 E.01547
G1 X98.411 Y100 E.01563
G1 X98.497 Y99.514 E.01547
G1 X98.715 Y99.066 E.01562
G1 X99.063 Y98.728 E.01521
G1 X99.504 Y98.492 E.01568
G1 X99.812 Y98.446 E.00976
G1 X100.198 Y98.432 E.01211
G1 X100.646 Y98.549 E.01452
G1 X101.051 Y98.821 E.0153
G1 X101.282 Y99.094 E.01121
M204 P1000
G1 X101.298 Y99.217 F9000
G1 X101.02 Y99.825
M204 P600
;TYPE:Solid infill
;WIDTH:0.465438
G1 F1200
G1 X100.468 Y99.273 E.02743
G1 X100.357 Y99.209 E.0045
G1 X100.047 Y99.136 E.01119
G1 X99.774 Y99.176 E.00969
G1 X100.826 Y100.228 E.05227
G1 X100.752 Y100.434 E.00769
G1 X100.611 Y100.611 E.00795
G1 X99.389 Y99.389 E.06071
G1 X99.298 Y99.49 E.00478
G1 X99.207 Y99.647 E.00638
G1 X99.168 Y99.766 E.0044
G1 X100.234 Y100.832 E.05296
G1 X100.208 Y100.84 E.00096
M73 P10 R5
G1 X99.863 Y100.855 E.01213
G1 X99.734 Y100.827 E.00464
G1 X99.566 Y100.752 E.00646
G1 X98.98 Y100.175 E.02889
M204 P1000
; stop printing object btn.stl id:0 copy 3
; printing object btn.stl id:0 copy 2
G1 E-2.24 F4200
;WIPE_START
G1 F7200
G1 X99.566 Y100.752 E-.45574
G1 X99.734 Y100.827 E-.10196
G1 X99.863 Y100.855 E-.07315
G1 X100.208 Y100.84 E-.19137
G1 X100.234 Y100.832 E-.01507
G1 X100.077 Y100.675 E-.12271
;WIPE_END
G1 Z.4 F720
G1 X91.037 Y99.381 F9000
G1 Z.2 F720
G1 E3.2 F2400
M204 P600
;TYPE:Perimeter
;WIDTH:0.419999
G1 F1200
G1 X91.196 Y99.874 E.01624
G1 X91.144 Y100.387 E.01617
G1 X90.985 Y100.69 E.01073
G1 X90.711 Y100.978 E.01246
G1 X90.395 Y101.136 E.01108
G1 X90.011 Y101.188 E.01215
G1 X89.628 Y101.151 E.01206
G1 X89.302 Y100.979 E.01156
G1 X89.022 Y100.711 E.01215
G1 X88.857 Y100.374 E.01176
G1 X88.791 Y100 E.01191
G1 X88.855 Y99.631 E.01174
G1 X89.022 Y99.289 E.01193
G1 X89.285 Y99.033 E.01151
G1 X89.61 Y98.857 E.01159
G1 X90.041 Y98.794 E.01366
G1 X90.492 Y98.895 E.01449
G1 X90.799 Y99.101 E.01159
G1 X90.998 Y99.335 E.00963
M204 P1000
G1 X91.321 Y99.14 F9000
M204 P600
;TYPE:External perimeter
G1 F1200
G1 X91.373 Y99.202 E.00254
G1 X91.496 Y99.523 E.01078
G1 X91.571 Y99.835 E.01006
G1 X91.588 Y99.995 E.00504
G1 X91.537 Y100.315 E.01016
